symbols/web/category/materialsymbolsoutlined/category_wght200gradN25fill1_40px.svg

<svg xmlns="http://www.w3.org/2000/svg" height="40" width="40"><path d="m13.292 16.958 6.75-11.041 6.75 11.041ZM29.25 35.333q-2.583 0-4.333-1.771-1.75-1.77-1.75-4.354 0-2.541 1.75-4.291 1.75-1.75 4.333-1.75 2.542 0 4.312 1.75 1.771 1.75 1.771 4.291 0 2.584-1.771 4.354-1.77 1.771-4.312 1.771Zm-22.833-.916V23.958h10.416v10.459Z"/></svg>

<svg xmlns="http://www.w3.org/2000/svg" height="40" width="40"><path d="M13.292 16.958 20.042 5.917 26.792 16.958ZM29.25 35.333Q26.667 35.333 24.917 33.562Q23.167 31.792 23.167 29.208Q23.167 26.667 24.917 24.917Q26.667 23.167 29.25 23.167Q31.792 23.167 33.562 24.917Q35.333 26.667 35.333 29.208Q35.333 31.792 33.562 33.562Q31.792 35.333 29.25 35.333ZM6.417 34.417V23.958H16.833V34.417Z"/></svg>
